X:457
T:the Banks of the Bann
M:3/4
L:1/8
K:G
DE | G3 BA G | E2 E2 DE | G2 G2 GA | B4 dB |
A2 A2 AG | A3 B d>e | e3 ddB | d2 z2 Bd |
e2 ef gf | e2 d3 B | d2 G3 F | E2 E2 DE |
G3 BAG | E2 E2 DE | G3 B AG | G6 | z4 |
